src/main/resources/icons/TasksCoreIcons/icons/stopTimer_dark.svg

<svg xmlns="http://www.w3.org/2000/svg" width="16" height="16" viewBox="0 0 16 16">
  <g fill="none" fill-rule="evenodd">
    <path fill="#AFB1B3" d="M11.9775785,8 L10.4690531,8 C10.2230041,6.02684421 8.53980883,4.5 6.5,4.5 C4.290861,4.5 2.5,6.290861 2.5,8.5 C2.5,10.709139 4.290861,12.5 6.5,12.5 C7.03045022,12.5 7.53678428,12.3967464 8,12.2092415 L8,13.7929675 C7.52316821,13.9278328 7.02001188,14 6.5,14 C3.46243388,14 1,11.5375661 1,8.5 C1,5.46243388 3.46243388,3 6.5,3 C7.68983367,3 8.79142261,3.37782057 9.69133816,4.02003305 L10.6127925,3.09857866 L11.602742,4.08852814 L10.719427,4.97184317 C11.4184608,5.80694634 11.8741875,6.85267474 11.9775785,8 Z M4,1 L9,1 L9,2 L4,2 L4,1 Z M5.80000019,6 L7.20000017,6 L7.20000017,9 L5.80000019,9 L5.80000019,6 Z"/>
    <rect width="6" height="6" x="9" y="9" fill="#C75450"/>
  </g>
</svg>

<svg xmlns="http://www.w3.org/2000/svg" width="16" height="16" viewBox="0 0 16 16"><rect id="frame" width="16" height="16" fill="none"/><g fill="none" fill-rule="evenodd"><path fill="#AFB1B3" d="M11.978 8h-1.509A4 4 0 1 0 8 12.21v1.583A5.5 5.5 0 1 1 9.691 4.02l.922-.921.99.99-.884.883A5.475 5.475 0 0 1 11.978 8zM4 1h5v1H4V1zm1.8 5h1.4v3H5.8V6z"/><path fill="#C75450" d="M9 9h6v6H9z"/></g></svg>
